wp-content/plugins/wordpress-seo/packages/js/images/semrush-logo.svg

<svg width="170" height="27" viewBox="0 0 200 27" fill="none" xmlns="http://www.w3.org/2000/svg">
<path d="M138.086 10.4127C138.086 7.13658 136.073 4.76172 132.217 4.76172H119.751V21.7382H123.85V15.9412H128.7L133.453 21.7365H138.072V21.3622L133.453 15.8438C136.335 15.2497 138.086 13.1333 138.086 10.4127ZM131.757 12.5123H123.85V8.27785H131.757C133.219 8.27785 134.158 9.0566 134.158 10.401C134.157 11.7671 133.25 12.5123 131.757 12.5123Z" fill="#171A22"/>
<path d="M200 4.76172H196.167V11.1982H185.836V4.76172H181.689V21.7382H185.836V15.0533H196.167V21.7382H200V4.76172Z" fill="#171A22"/>
<path d="M108.78 4.76172L104.222 19.0461H103.972L99.388 4.76172H92.0889V21.7382H95.9927V7.79281H96.2361L100.794 21.7382H107.083L111.667 7.79281H111.908V21.7382H115.935V4.76172H108.78Z" fill="#171A22"/>
<path d="M64.1764 11.7084C62.728 11.5574 60.0275 11.3107 58.5791 11.1613C57.1542 11.0153 56.3302 10.5923 56.3302 9.65079C56.3302 8.74785 57.2046 7.98588 60.7325 7.98588C63.8458 7.98588 66.7191 8.65218 69.2266 9.86227V6.06417C66.7191 4.86751 63.9633 4.28345 60.521 4.28345C55.6924 4.28345 52.3491 6.3025 52.3491 9.71625C52.3491 12.6064 54.3111 14.184 58.2468 14.6137C59.6717 14.7697 62.0936 14.9829 63.7837 15.1222C65.6248 15.2749 66.172 15.8372 66.172 16.6763C66.172 17.8277 64.8813 18.5427 61.6119 18.5427C58.2838 18.5427 54.9153 17.4551 52.5186 15.9328V19.8417C54.4437 21.129 57.7769 22.2216 61.4894 22.2216C66.7644 22.2216 70.1497 20.1874 70.1497 16.5454C70.1497 13.8047 68.3421 12.1415 64.1764 11.7084Z" fill="#171A22"/>
<path d="M72.8335 4.76172V21.7382H88.6687V18.269H76.7373V14.8251H88.4656V11.3828H76.7373V8.22918H88.6687V4.76172H72.8335Z" fill="#171A22"/>
<path d="M173.218 11.7082C171.77 11.5572 169.07 11.3104 167.621 11.1611C166.196 11.015 165.372 10.5921 165.372 9.65055C165.372 8.7476 166.247 7.98563 169.774 7.98563C172.888 7.98563 175.761 8.65194 178.269 9.86202V6.06393C175.759 4.86895 173.005 4.2832 169.563 4.2832C164.734 4.2832 161.391 6.30225 161.391 9.71601C161.391 12.6061 163.353 14.1838 167.289 14.6134C168.714 14.7695 171.136 14.9827 172.826 15.122C174.667 15.2747 175.214 15.8369 175.214 16.6761C175.214 17.8274 173.923 18.5424 170.654 18.5424C167.326 18.5424 163.957 17.4549 161.561 15.9326V19.8415C163.486 21.1288 166.819 22.2214 170.531 22.2214C175.806 22.2214 179.192 20.1872 179.192 16.5452C179.192 13.8045 177.386 12.1412 173.218 11.7082Z" fill="#171A22"/>
<path d="M154.503 4.76172V13.4522C154.503 16.7451 152.503 18.5527 149.495 18.5527C146.471 18.5527 144.487 16.772 144.487 13.4018V4.76172H140.412V13.0158C140.412 19.1804 144.264 22.2232 149.554 22.2232C154.644 22.2232 158.575 19.2995 158.575 13.2172V4.76172H154.503Z" fill="#171A22"/>
<path d="M38.3066 13.1515C38.3066 13.9789 37.892 14.1065 36.8414 14.1065C35.7269 14.1065 35.5356 13.9152 35.4081 13.0877C35.1848 10.9546 33.7515 9.13859 31.333 8.94894C30.5694 8.88516 30.3781 8.59816 30.3781 7.64318C30.3781 6.75198 30.5056 6.33743 31.2055 6.33743C35.4081 6.33743 38.3066 9.71258 38.3066 13.1515ZM44.4208 13.1515C44.4208 6.75198 40.0906 0 30.0911 0H10.2144C9.81329 0 9.56489 0.209793 9.56489 0.575672C9.56489 0.775396 9.71426 0.954979 9.85021 1.06071C10.5786 1.63303 11.6393 2.26241 13.0626 2.97403C14.4422 3.66383 15.5079 4.11195 16.5904 4.55167C17.0369 4.73293 17.2148 4.93098 17.2148 5.19616C17.2148 5.5419 16.9714 5.76176 16.4679 5.76176H0.691478C0.224898 5.76176 0 6.06218 0 6.36596C0 6.62443 0.0906307 6.83087 0.310494 7.05912C1.59107 8.39508 3.6269 10.0063 6.60261 11.8676C9.21076 13.4989 12.4332 15.2595 14.9893 16.4847C15.419 16.6911 15.5683 16.9295 15.5583 17.1762C15.5465 17.4615 15.3216 17.7032 14.8248 17.7032H7.59283C7.18164 17.7032 6.95338 17.9197 6.95338 18.252C6.95338 18.4366 7.10276 18.6716 7.29745 18.8495C8.94222 20.3415 11.5722 21.9729 15.0766 23.4649C19.7508 25.4555 24.5089 26.6521 29.8527 26.6521C39.9799 26.6521 44.4208 19.0744 44.4208 13.1515ZM31.2055 22.2263C26.2376 22.2263 22.0988 18.1815 22.0988 13.1515C22.0988 8.18361 26.2376 4.20426 31.2055 4.20426C36.3009 4.20426 40.2803 8.18529 40.2803 13.1515C40.2803 18.1815 36.3009 22.2263 31.2055 22.2263Z" fill="#FF642D"/>
</svg>

<svg width="170" height="27" viewBox="0 0 200 27" fill="none" xmlns="http://www.w3.org/2000/svg" role="img" aria-hidden="true" focusable="false"><path d="M138.086 10.413c0-3.276-2.013-5.651-5.869-5.651h-12.466v16.976h4.099v-5.797h4.85l4.753 5.795h4.619v-.374l-4.619-5.518c2.882-.594 4.633-2.71 4.633-5.431zm-6.329 2.1h-7.907V8.277h7.907c1.462 0 2.401.779 2.401 2.123-.001 1.366-.908 2.111-2.401 2.111zM200 4.762h-3.833v6.436h-10.331V4.762h-4.147v16.976h4.147v-6.685h10.331v6.685H200V4.762zm-91.22 0l-4.558 14.284h-.25L99.388 4.762h-7.3v16.976h3.905V7.793h.243l4.558 13.945h6.289l4.584-13.945h.241v13.945h4.027V4.762h-7.155zm-44.604 6.946c-1.448-.15-4.148-.397-5.597-.547-1.425-.146-2.249-.569-2.249-1.51 0-.903.875-1.665 4.403-1.665 3.113 0 5.986.666 8.494 1.876V6.064c-2.508-1.196-5.264-1.78-8.706-1.78-4.829 0-8.172 2.019-8.172 5.432 0 2.89 1.962 4.468 5.898 4.898 1.425.156 3.847.369 5.537.508 1.84.153 2.388.715 2.388 1.554 0 1.152-1.29 1.867-4.56 1.867-3.328 0-6.697-1.088-9.093-2.61v3.909c1.925 1.287 5.258 2.38 8.97 2.38 5.275 0 8.66-2.035 8.66-5.677 0-2.74-1.807-4.404-5.973-4.837zm8.658-6.946v16.976h15.835V18.27H76.737v-3.444h11.729v-3.442H76.737V8.229H88.67V4.762H72.834zm100.384 6.946c-1.448-.15-4.148-.398-5.597-.547-1.425-.146-2.249-.569-2.249-1.51 0-.903.875-1.665 4.402-1.665 3.114 0 5.987.666 8.495 1.876V6.064c-2.51-1.195-5.264-1.78-8.706-1.78-4.829 0-8.172 2.018-8.172 5.432 0 2.89 1.962 4.468 5.898 4.897 1.425.157 3.847.37 5.537.509 1.841.153 2.388.715 2.388 1.554 0 1.151-1.291 1.866-4.56 1.866-3.328 0-6.697-1.087-9.093-2.61v3.91c1.925 1.287 5.258 2.38 8.97 2.38 5.275 0 8.661-2.035 8.661-5.677 0-2.74-1.806-4.404-5.974-4.837zm-18.715-6.946v8.69c0 3.293-2 5.1-5.008 5.1-3.024 0-5.008-1.78-5.008-5.15v-8.64h-4.075v8.254c0 6.164 3.852 9.207 9.142 9.207 5.09 0 9.021-2.924 9.021-9.006V4.762h-4.072z" fill="#171A22"/><path d="M38.307 13.152c0 .827-.415.955-1.466.955-1.114 0-1.305-.192-1.433-1.02-.223-2.132-1.657-3.948-4.075-4.138-.764-.064-.955-.35-.955-1.306 0-.891.128-1.306.828-1.306 4.202 0 7.1 3.376 7.1 6.815zm6.114 0C44.42 6.752 40.09 0 30.09 0H10.214c-.4 0-.65.21-.65.576 0 .2.15.379.286.485.729.572 1.79 1.201 3.213 1.913 1.38.69 2.445 1.138 3.527 1.578.447.18.625.379.625.644 0 .346-.244.566-.747.566H.69c-.466 0-.691.3-.691.604 0 .258.09.465.31.693 1.281 1.336 3.317 2.947 6.293 4.809a92.427 92.427 0 0 0 8.386 4.617c.43.206.58.445.57.691-.012.286-.237.527-.734.527H7.593c-.411 0-.64.217-.64.549 0 .185.15.42.344.598 1.645 1.491 4.275 3.123 7.78 4.615 4.674 1.99 9.432 3.187 14.776 3.187 10.127 0 14.568-7.578 14.568-13.5zm-13.215 9.074c-4.968 0-9.107-4.044-9.107-9.074 0-4.968 4.139-8.948 9.107-8.948 5.095 0 9.074 3.981 9.074 8.948 0 5.03-3.98 9.074-9.075 9.074z" fill="#FF642D"/></svg>
